X:1
T:Violin Caprice No. 12 in A-Flat Major
T:Violin Caprice No. 12 in A-Flat Major
T:Op. 1, No. 12
T:Niccolò Paganini
C:Niccolò Paganini
L:1/8
Q:1/4=100
M:4/4
K:Ab
V:1 treble nm="Violin" snm="Vln."
V:1
"^Allegro"!p! (A/A,/A/A,/ A/A,/A/A,/ A/A,/G/A,/ F/A,/_F/A,/ | %1
 =D/A,/E/A,/ c/A,/B/A,/ A/A,/G/A,/ =F/A,/E/A,/) | %2
"^sempre legato" F/G,/E/G,/ !>!_F/G,/E/G,/ =F/G,/E/G,/ !>!_F/G,/E/G,/ | %3
 !>!C/c/=D/E/ !>!B,/G/D/E/ !>!A,/e/=B/c/ G/A/E/C/ | A/A,/A/A,/ A/A,/A/A,/ A/A,/G/A,/ F/A,/_F/A,/ | %5
 =D/A,/E/A,/ c/A,/B/A,/ A/A,/G/A,/ =F/A,/E/A,/ | !>!=E/G,/_D/G,/ E/G,/C/G,/ E/G,/D/G,/ E/G,/C/G,/ | %7
 !>!A,/c/G/A/ !>!G,/c/^F/G/ =F/A,/C/=E/ F/A/c/f/ | %8
 !>!B/B,/!>!B/B,/ !>!B/B,/b/B/ =a/B/_a/B/ f/B/=d/A/ | e/G/f/F/ g/E/a/=D/ g/E/f/F/ e/G/d/F/ | %10
 !>!c/E/!>!c/E/ !>!c/E/B/E/ =A/E/c/_G/ A/G/A/E/ | B/=D/=a/e/ b/=d/c'/c/ b/B/B/B,/ =A/C/_A/D/ | %12
 !>!G/E/!>!G/E/ !>!G/E/G/=D/ =A/C/B/B,/ c/=A,/A/C/ | B/B,/c/=A,/ =d/B,/e/C/ f/=D/g/E/ a/F/f/D/ | %14
 e/E/=d/E/ _d/E/c/E/ _c/E/B/E/ !>!a/=D/!>!g/E/ | c/C/=B/C/ _B/C/=A/C/ _A/C/G/C/ !>!f/=B,/!>!e/C/ | %16
 !>!A,/c/=A,/c/ !>!B,/=d/=B,/d/"^sul G e D" C/e/=D/f/ E/g/F/a/ | %17
 !>!G/b/A/c'/ !>!^F/=a/G/b/ !>!=E/g/=F/_a/ !>!=D/f/_E/_g/ | %18
 _G/=A,/E/A,/ e/G/c/G/ =A/G/A,/E/ A,/G/A,/E/ | %19
 B,/B/B,/!>!e/ B,/=d/B,/_d/ B,/c/B,/=B/ _B,/_B/B,/G/ | %20
 B,/F/B,/!>!=d/ B,/!>!_d/B,/c/ B,/=B/_B,/_B/ B,/A/B,/F/ | %21
 G,/E/B,/G/ _C/F/C/=D/ B,/E/G,/B/ A,/A/B,/F/ | G,/E/B,/G/ !>!_C/F/C/=D/ B,/E/G,/G/ A,/A/B,/F/ | %23
!<(! G,/E/!>!b/B/ a/=d/!>!g/e/ f/=B/!>!e/c/ _d/G/!>!c/A/ | %24
 B/=E/!>!A/F/ =B,/A/!>!C/G/ !>!A,/F/!>!=A,/_G/ !>!_B,/=G/!>!B,/F/!<)! |!f! [G,Ee]3 z z4 :: %26
!p! e'/e/e'/e/ e'/e/e'/e/ e'/e/=d'/e/ c'/e/_c'/e/ | =a/e/b/e/ g'/e/f'/e/ e'/e/=d'/e/ c'/e/b/e/ | %28
 c'/=d/b/d/ !>!_c'/d/b/d/ =c'/d/b/d/ !>!_c'/d/b/d/ | %29
 !>!g/e'/=a/b/ !>!f/=d'/a/b/ !>!e/b'/^f'/g'/ d'/e'/b/g/ | %30
 =e'/=e/e'/e/ e'/e/e'/e/ e'/e/_d'/e/ c'/e/b/e/ | %31
 a/f/!>!g/c/ f/d/!>!_e/=A/ d/B/!>!c/F/ B/_G/!>!d/F/ | %32
 c/=E/!>!B/E/ A/F/!>!_c/_E/ B/=D/!>!A/D/ _G/E/B/_D/ | %33
 !>!=B/=B,/^A/B,/ =A/B,/^G/B,/ =G/B,/^F/B,/ !>!=e/^A,/!>!^d/B,/ | %34
 !>!_A/A,/G/A,/ _G/A,/F/A,/ _F/A,/E/A,/ !>!d/G,/!>!_c/A,/ | %35
 !>!=e/=E/e/E/ e/E/^d/=B/ ^c/=A/B/^G/ A/^F/G/E/ | %36
 ^F/^D/=E/^C/ D/=B,/C/^A,/!<(! =b/=B/b/B/ b/B/!<)!B,/D/ | %37
 ^C/=E/^D/^F/ E/=G/=b/=B/!<(! =c'/c/c'/c/ c'/c/!<)!=C/E/ | %38
 =D/=F/=E/G/ F/A/c'/c/!<(! _d'/d/d'/d/ d'/d/!<)!D/F/ | %39
 E/_G/F/A/ ^F/=A/^c'/^c/!<(! =d'/=d/d'/d/ d'/d/d'/d/!<)! | %40
!>(! ^d'/^d/d'/d/ d'/d/d'/d/!>)! d'/d/=c'/d/ =b/d/=a/d/ | %41
 =g/=e/^f/=B/ e/c/=d/^G/ c/=A/B/=E/ A/=F/c/E/ | =B/^D/=A/D/ G/=E/_B/=D/ A/^C/G/C/ F/D/A/=C/ | %43
 B/B,/=A/B,/ _A/B,/G/B,/ _G/B,/F/B,/ !>!e/=A,/!>!=d/B,/ | %44
 g/G/^f/G/ =f/G/=e/G/ _e/G/=d/G/ !>!c'/^F/!>!b/G/ | e/E/e/E/ e/E/=d/B/ c/A/B/G/ A/F/G/E/ | %46
 F/=D/E/C/ D/B,/C/=A,/!<(! b/B/b/B/ b/B/!<)!B,/D/ | %47
 C/E/=D/F/ E/_G/b/B/!<(! =b/=B/b/B/ b/B/!<)!=B,/^D/ | %48
 ^C/=E/^D/^F/ E/G/=b/=B/!<(! =c'/=c/c'/c/ c'/c/!<)!=C/E/ | %49
 =D/F/=E/G/ F/A/c'/c/!<(! _d'/d/d'/d/ d'/d/d'/d/!<)! | %50
!>(! =d'/=d/d'/d/ d'/d/d'/d/!>)! d'/d/_c'/d/ b/d/a/d/ | _g/e/f/B/ e/_c/_d/=G/ c/A/B/E/ A/F/c/E/ | %52
 B/=D/A/D/ _G/E/=A/^C/ ^G/^B,/^F/B,/ =E/C/G/=B,/ | %53
 =A/=A,/^G/A,/ =G/A,/^F/A,/ =F/^G,/=E/G,/ !>!^F/A,/!>!E/A,/ | %54
 =G/^A,/^F/A,/ G/=B,/F/B,/ _A/B,/G/B,/ A/C/=F/=D/ | G/E/G/_D/ B/B,/d/G,/ c/A,/B/B,/ A/C/F/=D/ | %56
 G/E/f/=D/ g/E/a/F/ b/G/c'/A/ _d'/B/b/G/ | a/A/g/A/ _g/A/f/A/ _f/A/e/A/ !>!d'/G/!>!c'/A/ | %58
 f/F/=e/F/ _e/F/=d/F/ _d/F/c/F/ !>!b/=E/!>!a/F/ | %59
 !>!D/f/=D/f/ !>!E/g/=E/g/ !>!F/a/G/b/ A/c'/B/d'/ | %60
 !>!c/e'/d/f'/ !>!=B/=d'/c/e'/ !>!=A/c'/_B/_d'/ !>!G/=b/_A/c'/ | %61
 !>!_c/=D/A/D/ a/c/f/c/ =d/c/D/A/ D/c/D/A/ | E/=c/E/!>!a/ E/g/E/_g/ E/f/E/=e/ _E/_e/E/c/ | %63
 E/B/E/!>!g/ E/_g/E/f/ E/=e/_E/_e/ E/d/E/B/ | %64
 A,/E/C/E/ D/F/D/_F/!<(! C/E/A,/A/!<)!!>(! D/=F/G,/_F/!>)! | %65
 A,/E/C/E/ D/F/D/_F/!<(! C/E/A,/A/!<)!!>(! D/=F/G,/!p!_F/!>)! | %66
!<(! A,/E/!>!c'/c/ d'/g/!>!c'/a/ b/=e/!>!a/f/ _g/c/!>!f/d/ | %67
 _e/=A/!>!d/B/ !>!=E/d/!>!F/c/ !>!D/B/!>!=D/_c/ !>!E/=c/!>!E/B/!<)! |!f! [A,Eca]2 z2 z4 :| %69

